assets/svgs/misc-grey/MiscGrey105.svg

<svg width="35" height="46" viewBox="0 0 35 46" fill="none" xmlns="http://www.w3.org/2000/svg">
<path fill-rule="evenodd" clip-rule="evenodd" d="M16.98 24.68H23.19C24.02 24.68 24.69 24.01 24.69 23.18C24.69 22.35 24.02 21.68 23.19 21.68H18.48V13.83C18.48 13 17.81 12.33 16.98 12.33C16.15 12.33 15.48 13 15.48 13.83V23.18C15.48 24.01 16.15 24.68 16.98 24.68ZM24.6 41.77C24.6 42.04 24.38 42.27 24.1 42.27H9.84998C9.57998 42.27 9.34998 42.04 9.34998 41.77V37.8C11.71 39.05 14.39 39.77 17.23 39.77C19.88 39.77 22.37 39.14 24.6 38.04V41.77ZM3.34998 22.89C3.34998 15.24 9.57998 9.02002 17.23 9.02002C24.88 9.02002 31.1 15.24 31.1 22.89C31.1 30.54 24.88 36.77 17.23 36.77C9.57998 36.77 3.34998 30.54 3.34998 22.89ZM9.34998 3.77002C9.34998 3.49002 9.57998 3.27002 9.84998 3.27002H24.1C24.38 3.27002 24.6 3.49002 24.6 3.77002V7.74002C22.37 6.65002 19.88 6.02002 17.23 6.02002C14.39 6.02002 11.71 6.73002 9.34998 7.98002V3.77002ZM34.1 22.89C34.1 17.49 31.54 12.68 27.58 9.59002C27.59 9.51002 27.6 9.43002 27.6 9.34002V3.77002C27.6 1.84002 26.03 0.27002 24.1 0.27002H9.84998C7.91998 0.27002 6.34998 1.84002 6.34998 3.77002V9.71002C6.34998 9.80002 6.36998 9.89002 6.37998 9.98002C2.69998 13.08 0.349976 17.71 0.349976 22.89C0.349976 28.05 2.68998 32.68 6.34998 35.77V41.77C6.34998 43.7 7.91998 45.27 9.84998 45.27H24.1C26.03 45.27 27.6 43.7 27.6 41.77V36.17C31.55 33.08 34.1 28.28 34.1 22.89Z" fill="#1A1919"/>
</svg>

<svg xmlns="http://www.w3.org/2000/svg" fill="none" viewBox="0 0 35 46"><path fill="#1A1919" fill-rule="evenodd" d="M16.98 24.68h6.21c.83 0 1.5-.67 1.5-1.5s-.67-1.5-1.5-1.5h-4.71v-7.85c0-.83-.67-1.5-1.5-1.5s-1.5.67-1.5 1.5v9.35c0 .83.67 1.5 1.5 1.5zm7.62 17.09c0 .27-.22.5-.5.5H9.85c-.27 0-.5-.23-.5-.5V37.8c2.36 1.25 5.04 1.97 7.88 1.97 2.65 0 5.14-.63 7.37-1.73v3.73zM3.35 22.89c0-7.65 6.23-13.87 13.88-13.87S31.1 15.24 31.1 22.89c0 7.65-6.22 13.88-13.87 13.88-7.65 0-13.88-6.23-13.88-13.88zm6-19.12c0-.28.23-.5.5-.5H24.1c.28 0 .5.22.5.5v3.97a16.715 16.715 0 00-7.37-1.72c-2.84 0-5.52.71-7.88 1.96V3.77zM34.1 22.89c0-5.4-2.56-10.21-6.52-13.3.01-.08.02-.16.02-.25V3.77c0-1.93-1.57-3.5-3.5-3.5H9.85c-1.93 0-3.5 1.57-3.5 3.5v5.94c0 .09.02.18.03.27C2.7 13.08.35 17.71.35 22.89c0 5.16 2.34 9.79 6 12.88v6c0 1.93 1.57 3.5 3.5 3.5H24.1c1.93 0 3.5-1.57 3.5-3.5v-5.6c3.95-3.09 6.5-7.89 6.5-13.28z" clip-rule="evenodd"/></svg>
